X:1
T:Sleep Soond ida Moarnin
M:C|
L:1/8
K:ADor
"Am"Aa2=g-a2 ef|"G"gedB GABG|"Am(F)"Aa2=g-"Am(Dm)"a2 ef|"G(Em)"gedB "Am(F)"A2BG|!
"Am"Aa2=g-a2 ef|"G"gedB GABG|"F"ABcd "Em"efga|"G"gedB"Am"A2A:|]!
(B|"Am"cA)e(A cA)e(A|"G(Em)"Bc)d(B G2)A(B|"Am(F)"cA)e(A cA)e(A|"Em(G)"BA)GB "F(Am)"A2 AB-|!
"Am"cA)e(A cA)e(A|"G"Bc)dB G3B|"F"ABcd "Em"efga|"G"gedB"Am"A2A:|]!
